X: 1
T: L'\'elan
C: Philippe Plard
M: 2/4
K: Am
L: 1/8
"Am"c>B A^G|AB cA|"Am/F"c>B A^G|AB F2|
"Dm"c>B A^G|AB cA|"Em"cd/c/ Ac|e4:|
|:"F"f>e dc|"G"Bc dB|"Em"e>d cB|"C"cd eg|
"F"f>e dc|"G"Bc dB|"C"[ce]2 [ce]2|[Be]2 [Be]2:|
